X:1
M:3/4
L:1/4
K:D
|: D/F/ A/ | ded | cE>F | G>A c/B/ | A2 D/F/ | ABA/D/ | F2 E/F/ | AGF | E>D F/A/ |
ded | c2 B/c/ | dcB | A2 D/F/ | AB A/D/ | F2 E/D/ | F2E | D>D F/A/ ||
ded | c>c B/c/ | dcB | A2 D/F/ | AB A/D/ | F2 E/F/ | A2G | F>D F/A/ |
ded | c>c B/c/ | dcB | A2 D/F/ | AB A/D/ | F2 E/D/ | F2E | D3 ||
M: 3/4
L: 1/4
K: D
"A"|: "G"B2"A"A | "Bm"F2  F | "Em"F>E  D |  "A"E3 | "G"B2"A"A | "Bm"F2 F |"Em"F2   "A7"E | "D"D3 "^Fine":|
"B"[| "D"D2   d | "F#m"c>BA |  "G"B2"A"A |  "D"F3 |  "D"D2  d |"F#m"c>BA | "G"B"Em"B"A"A | "D"D3 |
   | "Bm"D2   d | "F#m"c>BA |  "G"B2"A"A | "Bm"F3 | "D7"D2  d |  "G"B>AG | "A"A2   "A7"C | "D"D3 |]
"C"|:\
      "G"[B2D2]"A"[AC] | "Bm"[F2D2][FD] | "Em"[FD2]>ED | "A"[E-D][E-B,][EC] |\
      "G"[B2D2]"A"[A/-A,/][A/B,/] | "Bm"[F-C][F-D][FB,] | "Em"[F-D][FB,]"A"[EC] | "D"[D3D3] :|
"D"[| "D"[d2D2][d'd] | "F#m"[c'c]>[bB][aA] | "G"[b2B2]"A"[aA] | "D"[f3F3] |\
      "D"[d2D2][d'd] | "F#m"[c'c]>[bB][aA] | "G"[bB][bB]"A"[aA] | "D"[d3D3] |
   | "Bm"[d2D2][d'd] | "F#m"[c'c]>[bB][aA] | "G"[bB][bB]"A"[aA] | "Bm"[f3F3] |\
     "D7"D2d | "G"B>AG | "A"A2"A7"C | "D"D3 "^D.C. al Fine"y2|]
M: 3/4
L: 1/4
K: D
V: 1 staves=2
"A"|:\
"G"B2"A"A | "Bm"F2F | "Em"F>ED | "A"E3 | "G"B2"A"A | "Bm"F2F | "Em"F2"A7"E | "D"D3 !fine!y:|
"B"[|\
 "D"D2d | "F#m"c>BA | "G"B2"A"A |  "D"F3 |  "D"D2d | "F#m"c>BA | "G"B"Em"B"A"A | "D"D3 |
"Bm"D2d | "F#m"c>BA | "G"BB"A"A | "Bm"F3 | "D7"D2d | "G"B>AG | "A"A2"A7"C | "D"D3 y2|]
V: 2
"A"|:\
D2C | D2D | D2D | EB,C | D2A,/B,/ | CDB, | DB,C | D3 y:|
"B"[|\
d2d' | c'>ba | b2a | f3 | d2d' | c'>ba | bba | d3 |
d2d' | c'>ba | bba | f3 | D2d | B>AG | A2C | D3 "^D.C. al Fine"y2|]
